X:1
T:Fatimas Ave Maria
T:tradicionāla mel. harm. pr.  Andris Solims
T:Atdz. Janīna Babre
T:Fatimas Ave Maria
C:tradicionāla mel.
C:harm. pr.  Andris Solims
Z:Atdz. Janīna Babre
%%score [ ( 1 2 ) ( 3 4 ) ]
L:1/8
Q:1/4=80
M:3/4
K:F
V:1 treble nm="SOPRANO ALTO" snm="S. A."
V:2 treble 
V:3 bass nm="TENORE BASSO" snm="T. B."
V:4 bass 
V:1
!mf!"^Andante" C2 | F2 F2 (AA) | c2 c2 A2 | c2 c2"^-""^-""^-" A2 |"^-""^-""^-" G2 G2"^|""^|" A2 | %5
w: 1.|trīs- pad- smi- tā|mai- jā Ko-|vā da I|1. jā kā|
w: |||||
w: |||||
 B2 B2 G2 | A2 A2 F2 | G2 G2 C2 | F2 !fermata!F2 ||"^Refrēns:"!mp! C2 |!<(! A4 G2!<)! | %11
w: Jau- na- va|skais- ta Tu|nā- ci, Ma-|ri- ja.|A-|ve Ma-|
w: ||||A-|ve ri-|
w: ||||A-|ve, a-|
 F4!mf!"^|" F2 | G2 A2 B2 | G4!f!"^|" C2 |"^-""^-""^-" c4 B2 |!>(! A4!>)!!mf!"^|" F2 | G2 C2 A2 | %17
w: a, a-|ve Ma- ri-|a, Ma-|ve, a-|ve, a-|ve Ma- ri-|
w: a, a-|||ve, ve,|a- ve,|ve Ma- ri-|
w: ve, a-|ve Ma- ri-|a, a-|ve, a-|ve, a-|ve Ma- ri-|
"^rit."!mp! !fermata!F4 x2 |] %18
w: a,|
w: a,|
w: a.|
V:2
 C2 | C2 C2 (FF) | F2 G2 F2 | E2 F2 ^F2 | D2 D2 D2 | G2 G2 E2 | F2 G2 D2 | D2 D2 C2 | C2 C2 || %9
 B,2 | C2 E2 C2 | CD C2 C2 | D2 ^F2 G2 | GF ED C2 | A4 G2 | G (F/E/) F2 D2 | (ED) (CB,) C2 | %17
 CB, !tenuto!D!fermata!C x2 |] %18
V:3
 C2 | A,2 A,2 (CC) | D2 C2 C2 | C2 D2 C2 | C2 B,2"^|" C2 | D2 D2 C2 | C2 ^C2 (D=C) | B,2 B,2 B,2 | %8
w: ||||||||
 (B,G,) A,2 ||"^1.-5." G,2 | F,A, (C2 B,2) | A,B, A,2"^|" A,2 | B,2 C2 (D_D) | %13
w: |A-|ve * Ma- ri-|a, * * *||
 C=B, C_B,"^|" (A,B,) |"^-" CF EF DC | C2 C2"^|" (A,=B,) | (C_B,) (A,G,) C2 | %17
w: * * * * a- *|ve, * a- * ve, *|a- ve, a- *|ve * Ma- * ri-|
 A,G, !tenuto!B,!fermata!A, x2 |] %18
w: a. * * *|
V:4
 C,2 | F,2 F,2 (E,E,) | D,2 E,2 F,2 | A,2 D,2 D,2 | G,2 G,2 ^F,2 | G,2 =F,2 E,2 | F,2 E,2 D,2 | %7
 G,2 F,2 E,2 | F,2 !fermata!F,2 || C,2 | F,2 C,2 (D,E,) | F,4 E,2 | D,2 D,2 (G,F,) | %13
 E,D, C,C, (D,E,) | F,2 (C,D,) E,2 | F,2 E,2 D,2 | C,2 C,2 E,2 | !fermata!F,4 x2 |] %18

